public/avatar/item0/47.svg

<svg xmlns:xlink="http://www.w3.org/1999/xlink" height="58.65" width="49.15" xmlns="http://www.w3.org/2000/svg"><use height="4.9" transform="translate(11.2 32.9)" width="25.25" xlink:href="#a"/><defs><g id="a" fill-rule="evenodd"><path d="M-12.7 17.15q-.75-2.4 1.65-2.35.9 0 2.05.55 1.3.6 1.5 1.35.25.9-.5 1.85-.8 1-1.75 1-2.25.05-2.95-2.4" fill="#fff" transform="translate(12.9 -14.8)"/><path d="M-11.05 14.8h.3l-1.4 3.65q-.9-1.1-.7-2.35.25-1.35 1.8-1.3m3.55 1.9q.25.9-.5 1.85-.8 1-1.75 1l-.3.05 1.8-3.9q.65.65.75 1" fill="red" transform="translate(12.9 -14.8)"/><path d="M10.5 14.8q2.4-.05 1.65 2.35-.75 2.45-3 2.4-.95 0-1.7-1-.8-.95-.55-1.85.2-.75 1.5-1.35 1.2-.55 2.1-.55" fill="#fff" transform="translate(12.9 -14.8)"/><path d="M10.5 14.8q1.45-.05 1.75 1.15.3 1.05-.35 2.2l-1.75-3.35h.35m-3.6 1.9q.2-.7.8-.85l2.05 3.85-.6-.15q-.95 0-1.7-1-.8-.95-.55-1.85m-16.95.5q0 .55-.4.55-.45 0-.45-.55t.45-.55q.4 0 .4.55m20.25 0q0 .55-.4.55-.45 0-.45-.55t.45-.55q.4 0 .4.55" fill="red" transform="translate(12.9 -14.8)"/></g></defs></svg>

<?xml version="1.0" encoding="UTF-8" standalone="no"?>
<svg xmlns:xlink="http://www.w3.org/1999/xlink" height="58.65px" width="49.15px" xmlns="http://www.w3.org/2000/svg">
  <g transform="matrix(1.0, 0.0, 0.0, 1.0, 24.1, 18.1)">
    <use height="4.9" transform="matrix(1.0, 0.0, 0.0, 1.0, -12.9, 14.8)" width="25.25" xlink:href="#shape0"/>
  </g>
  <defs>
    <g id="shape0" transform="matrix(1.0, 0.0, 0.0, 1.0, 12.9, -14.8)">
      <path d="M-12.7 17.15 Q-13.45 14.75 -11.05 14.8 -10.15 14.8 -9.0 15.35 -7.7 15.95 -7.5 16.7 -7.25 17.6 -8.0 18.55 -8.8 19.55 -9.75 19.55 -12.0 19.6 -12.7 17.15" fill="#ffffff" fill-rule="evenodd" stroke="none"/>
      <path d="M-11.05 14.8 L-10.75 14.8 -12.15 18.45 Q-13.05 17.35 -12.85 16.1 -12.6 14.75 -11.05 14.8" fill="#ff0000" fill-rule="evenodd" stroke="none"/>
      <path d="M-7.5 16.7 Q-7.25 17.6 -8.0 18.55 -8.8 19.55 -9.75 19.55 L-10.05 19.6 -8.25 15.7 Q-7.6 16.35 -7.5 16.7" fill="#ff0000" fill-rule="evenodd" stroke="none"/>
      <path d="M10.5 14.8 Q12.9 14.75 12.15 17.15 11.4 19.6 9.15 19.55 8.2 19.55 7.45 18.55 6.65 17.6 6.9 16.7 7.1 15.95 8.4 15.35 9.6 14.8 10.5 14.8" fill="#ffffff" fill-rule="evenodd" stroke="none"/>
      <path d="M10.5 14.8 Q11.95 14.75 12.25 15.95 12.55 17.0 11.9 18.15 L10.15 14.8 10.5 14.8" fill="#ff0000" fill-rule="evenodd" stroke="none"/>
      <path d="M6.9 16.7 Q7.1 16.0 7.7 15.85 L9.75 19.7 9.15 19.55 Q8.2 19.55 7.45 18.55 6.65 17.6 6.9 16.7" fill="#ff0000" fill-rule="evenodd" stroke="none"/>
      <path d="M-10.05 17.2 Q-10.05 17.75 -10.45 17.75 -10.9 17.75 -10.9 17.2 -10.9 16.65 -10.45 16.65 -10.05 16.65 -10.05 17.2" fill="#ff0000" fill-rule="evenodd" stroke="none"/>
      <path d="M10.2 17.2 Q10.2 17.75 9.8 17.75 9.35 17.75 9.35 17.2 9.35 16.65 9.8 16.65 10.2 16.65 10.2 17.2" fill="#ff0000" fill-rule="evenodd" stroke="none"/>
    </g>
  </defs>
</svg>
